public/img/assets/icons/weather-conditions/snow-showers-day.svg

<svg width="120" height="120" viewBox="0 0 120 120" fill="none" xmlns="http://www.w3.org/2000/svg">
<path d="M51.4835 44C51.4835 53.1113 58.8953 60.5231 68.0066 60.5231C77.1179 60.5231 84.5297 53.1113 84.5297 44C84.5297 34.8887 77.1179 27.4769 68.0066 27.4769C58.8953 27.4769 51.4835 34.8887 51.4835 44ZM64.7 13C64.7 11.8954 65.5954 11 66.7 11H69.3C70.4046 11 71.3 11.8954 71.3 13V18.9C71.3 20.0046 70.4046 20.9 69.3 20.9H66.7C65.5954 20.9 64.7 20.0046 64.7 18.9V13ZM35 42.7C35 41.5954 35.8954 40.7 37 40.7H42.9C44.0046 40.7 44.9 41.5954 44.9 42.7V45.3C44.9 46.4046 44.0046 47.3 42.9 47.3H37C35.8954 47.3 35 46.4046 35 45.3V42.7ZM91.1 42.7C91.1 41.5954 91.9954 40.7 93.1 40.7H99C100.105 40.7 101 41.5954 101 42.7V45.3C101 46.4046 100.105 47.3 99 47.3H93.1C91.9954 47.3 91.1 46.4046 91.1 45.3V42.7ZM83.4128 26.7494C82.6318 25.9684 82.6318 24.702 83.4128 23.921L87.587 19.7468C88.368 18.9658 89.6344 18.9658 90.4154 19.7468L92.2532 21.5846C93.0342 22.3656 93.0342 23.632 92.2532 24.413L88.079 28.5872C87.298 29.3682 86.0316 29.3682 85.2506 28.5872L83.4128 26.7494ZM50.7497 28.5902C49.9686 29.3713 48.702 29.3712 47.921 28.5898L43.7499 24.4168C42.969 23.6355 42.9694 22.3691 43.7508 21.5882L45.5905 19.7498C46.3719 18.9689 47.6384 18.9695 48.4191 19.7509L52.5885 23.9243C53.3689 24.7054 53.3686 25.9713 52.5879 26.752L50.7497 28.5902Z" fill="#FDF72A"/>
<path d="M82.1875 53.6C82.0949 53.6 82.0178 53.6306 81.9406 53.6306C82.1103 52.8344 82.1875 52.0075 82.1875 51.15C82.1875 44.3819 76.6637 38.9 69.8438 38.9C66.048 38.9 62.6998 40.6303 60.4316 43.31C57.5617 37.7975 51.8373 34 45.1563 34C35.6053 34 27.875 41.6716 27.875 51.15C27.875 52.2678 27.9984 53.3397 28.199 54.3963C22.2895 56.3256 18 61.7922 18 68.3C18 76.4156 24.6348 83 32.8125 83H82.1875C90.3652 83 97 76.4156 97 68.3C97 60.1844 90.3652 53.6 82.1875 53.6Z" fill="#3FD5FE"/>
<path fill-rule="evenodd" clip-rule="evenodd" d="M68.0066 60.5231C58.8953 60.5231 51.4835 53.1113 51.4835 44C51.4835 41.1588 52.2042 38.4829 53.4725 36.1454C56.439 37.7936 58.8621 40.2954 60.4316 43.31C62.6998 40.6303 66.048 38.9 69.8437 38.9C76.6637 38.9 82.1875 44.3819 82.1875 51.15C82.1875 51.6455 82.1617 52.1309 82.1072 52.606C79.2007 57.3509 73.9673 60.5231 68.0066 60.5231Z" fill="#F7D056"/>
<rect x="52.8407" y="75" width="3.04385" height="13" rx="1" fill="#6A9CFF"/>
<rect width="3.05509" height="12.9523" rx="1" transform="matrix(0.498161 -0.867085 0.86496 0.501841 48 79.5745)" fill="#6A9CFF"/>
<rect width="3.05509" height="12.9523" rx="1" transform="matrix(-0.498161 -0.867085 -0.86496 0.501841 61 79.1784)" fill="#6A9CFF"/>
<path fill-rule="evenodd" clip-rule="evenodd" d="M60.1085 83C60.0388 82.9212 59.9553 82.8521 59.8591 82.7965L57.2025 81.2628L60.134 79.5703C60.6123 79.2941 60.7761 78.6825 60.5 78.2043L59.9781 77.3003C59.7019 76.822 59.0903 76.6581 58.612 76.9342L55.8845 78.509V75.9123C55.8845 75.36 55.4368 74.9123 54.8845 74.9123H53.8406C53.2884 74.9123 52.8406 75.36 52.8406 75.9123V78.7444L50.388 77.3284C49.9097 77.0522 49.2981 77.2161 49.0219 77.6944L48.5 78.5984C48.2239 79.0767 48.3877 79.6883 48.866 79.9644L51.1148 81.2628L49.1409 82.4024C48.9048 82.5387 48.7454 82.7567 48.6776 83H60.1085Z" fill="#3377FF"/>
<rect x="36.8407" y="92" width="3.04385" height="13" rx="1" fill="#6A9CFF"/>
<rect width="3.05509" height="12.9523" rx="1" transform="matrix(0.498161 -0.867085 0.86496 0.501841 32 96.5745)" fill="#6A9CFF"/>
<rect width="3.05509" height="12.9523" rx="1" transform="matrix(-0.498161 -0.867085 -0.86496 0.501841 45 96.1784)" fill="#6A9CFF"/>
<rect x="68.8407" y="92" width="3.04385" height="13" rx="1" fill="#6A9CFF"/>
<rect width="3.05509" height="12.9523" rx="1" transform="matrix(0.498161 -0.867085 0.86496 0.501841 64 96.5745)" fill="#6A9CFF"/>
<rect width="3.05509" height="12.9523" rx="1" transform="matrix(-0.498161 -0.867085 -0.86496 0.501841 77 96.1784)" fill="#6A9CFF"/>
</svg>

<svg width="120" height="120" fill="none" xmlns="http://www.w3.org/2000/svg"><path d="M51.483 44c0 9.111 7.412 16.523 16.524 16.523 9.11 0 16.523-7.412 16.523-16.523s-7.412-16.523-16.523-16.523c-9.112 0-16.524 7.412-16.524 16.523ZM64.7 13a2 2 0 0 1 2-2h2.6a2 2 0 0 1 2 2v5.9a2 2 0 0 1-2 2h-2.6a2 2 0 0 1-2-2V13ZM35 42.7a2 2 0 0 1 2-2h5.9a2 2 0 0 1 2 2v2.6a2 2 0 0 1-2 2H37a2 2 0 0 1-2-2v-2.6Zm56.1 0a2 2 0 0 1 2-2H99a2 2 0 0 1 2 2v2.6a2 2 0 0 1-2 2h-5.9a2 2 0 0 1-2-2v-2.6Zm-7.687-15.95a2 2 0 0 1 0-2.829l4.174-4.174a2 2 0 0 1 2.828 0l1.838 1.838a2 2 0 0 1 0 2.828l-4.174 4.174a2 2 0 0 1-2.828 0l-1.838-1.838ZM50.75 28.59a2 2 0 0 1-2.829 0l-4.171-4.173a2 2 0 0 1 0-2.829l1.84-1.838a2 2 0 0 1 2.83 0l4.169 4.174a2 2 0 0 1-.001 2.828L50.75 28.59Z" fill="#FDF72A"/><path d="M82.188 53.6c-.093 0-.17.03-.247.03.17-.796.246-1.623.246-2.48 0-6.768-5.523-12.25-12.343-12.25-3.796 0-7.144 1.73-9.412 4.41-2.87-5.513-8.595-9.31-15.276-9.31-9.55 0-17.281 7.672-17.281 17.15 0 1.118.123 2.19.324 3.246C22.289 56.326 18 61.792 18 68.3 18 76.416 24.635 83 32.813 83h49.374C90.365 83 97 76.416 97 68.3s-6.635-14.7-14.813-14.7Z" fill="#3FD5FE"/><path fill-rule="evenodd" clip-rule="evenodd" d="M68.007 60.523c-9.112 0-16.524-7.412-16.524-16.523 0-2.841.721-5.517 1.99-7.855a17.383 17.383 0 0 1 6.959 7.165c2.268-2.68 5.616-4.41 9.412-4.41 6.82 0 12.344 5.482 12.344 12.25 0 .495-.026.98-.08 1.456-2.907 4.745-8.14 7.917-14.101 7.917Z" fill="#F7D056"/><rect x="52.841" y="75" width="3.044" height="13" rx="1" fill="#6A9CFF"/><rect width="3.055" height="12.952" rx="1" transform="matrix(.49816 -.86708 .86496 .50184 48 79.575)" fill="#6A9CFF"/><rect width="3.055" height="12.952" rx="1" transform="matrix(-.49816 -.86708 -.86496 .50184 61 79.178)" fill="#6A9CFF"/><path fill-rule="evenodd" clip-rule="evenodd" d="M60.108 83a1 1 0 0 0-.249-.204l-2.657-1.533 2.932-1.693a1 1 0 0 0 .366-1.366l-.522-.904a1 1 0 0 0-1.366-.366l-2.727 1.575v-2.597a1 1 0 0 0-1-1H53.84a1 1 0 0 0-1 1v2.832l-2.453-1.416a1 1 0 0 0-1.366.366l-.522.904a1 1 0 0 0 .366 1.366l2.249 1.299-1.974 1.14a.997.997 0 0 0-.463.597h11.43Z" fill="#37F"/><rect x="36.841" y="92" width="3.044" height="13" rx="1" fill="#6A9CFF"/><rect width="3.055" height="12.952" rx="1" transform="matrix(.49816 -.86708 .86496 .50184 32 96.575)" fill="#6A9CFF"/><rect width="3.055" height="12.952" rx="1" transform="matrix(-.49816 -.86708 -.86496 .50184 45 96.178)" fill="#6A9CFF"/><rect x="68.841" y="92" width="3.044" height="13" rx="1" fill="#6A9CFF"/><rect width="3.055" height="12.952" rx="1" transform="matrix(.49816 -.86708 .86496 .50184 64 96.575)" fill="#6A9CFF"/><rect width="3.055" height="12.952" rx="1" transform="matrix(-.49816 -.86708 -.86496 .50184 77 96.178)" fill="#6A9CFF"/></svg>
